<?xml version="1.0" encoding="UTF-8"?>
<map version="1.10" tiledversion="1.12.1-8-g449813058" orientation="orthogonal" renderorder="right-down" width="30" height="20" tilewidth="16" tileheight="16" infinite="1" nextlayerid="2" nextobjectid="1">
 <tileset firstgid="1" name="mercado_pierri" tilewidth="16" tileheight="16" tilecount="1344" columns="42">
  <image source="mercado_pierri.png" width="672" height="512"/>
 </tileset>
 <layer id="1" name="Ground and walls" width="30" height="20">
  <data encoding="csv">
   <chunk x="-16" y="-32" width="16" height="16">
0,0,0,0,0,0,0,0,0,0,0,0,0,0,0,0,
0,0,0,0,0,0,0,0,0,0,18,19,20,20,20,20,
0,0,0,0,0,0,0,0,0,0,389,390,448,448,591,448,
0,0,0,0,0,0,0,0,0,0,431,432,490,490,633,490,
0,0,0,0,0,0,0,0,0,0,473,474,532,532,532,532,
0,0,0,0,0,0,0,0,0,0,186,716,930,930,930,930,
0,0,0,0,0,0,0,0,0,0,649,972,972,972,972,972,
0,0,0,0,0,0,0,0,0,0,691,930,930,930,930,930,
0,0,0,0,0,0,0,0,0,0,733,972,972,972,972,972,
0,0,0,0,0,0,0,0,0,0,775,930,930,930,930,930,
0,0,0,0,0,0,0,0,0,0,817,972,972,972,972,972,
0,0,0,0,0,0,0,0,0,0,859,930,930,930,930,930,
0,0,0,0,0,0,0,0,0,0,901,972,972,972,972,972,
0,0,0,0,0,0,0,0,0,0,649,930,930,930,930,930,
0,0,0,0,0,0,0,0,0,0,691,972,972,972,972,972,
0,0,0,0,0,0,0,0,0,0,733,930,930,930,930,930
</chunk>
   <chunk x="0" y="-32" width="16" height="16">
0,0,0,0,0,0,0,0,0,0,0,0,0,0,0,0,
20,20,20,20,20,20,29,30,0,0,0,0,0,0,0,0,
448,448,448,448,591,448,605,72,0,0,0,0,0,0,0,0,
490,490,490,490,633,490,647,114,0,0,0,0,0,0,0,0,
532,532,532,532,532,532,689,156,0,0,0,0,0,0,0,0,
930,930,930,930,930,930,731,198,0,0,0,0,0,0,0,0,
972,972,972,972,972,972,972,240,0,0,0,0,0,0,0,0,
930,930,930,930,930,930,930,282,0,0,0,0,0,0,0,0,
972,972,972,972,972,972,972,324,0,0,0,0,0,0,0,0,
930,930,930,930,930,930,930,400,401,402,401,402,403,401,402,403,
972,972,972,972,972,972,972,789,789,789,789,789,789,789,789,789,
930,930,930,930,930,930,930,831,831,831,831,831,117,831,831,831,
972,972,972,972,972,972,972,873,873,873,873,873,159,873,873,873,
930,930,930,930,930,930,930,930,930,930,930,930,930,930,930,930,
972,972,972,972,972,972,972,972,972,972,972,972,972,972,972,972,
930,930,930,930,930,930,930,930,930,930,930,930,930,930,930,930
</chunk>
   <chunk x="16" y="-32" width="16" height="16">
0,0,0,0,0,0,0,0,0,0,0,0,0,0,0,0,
0,0,0,0,0,0,0,0,0,0,0,0,0,0,0,0,
0,0,0,0,0,0,0,0,0,0,0,0,0,0,0,0,
0,0,0,0,0,0,0,0,0,0,0,0,0,0,0,0,
0,0,0,0,0,0,0,0,0,0,0,0,0,0,0,0,
0,0,0,0,0,0,0,0,0,0,0,0,0,0,0,0,
0,0,0,0,0,0,0,0,0,0,0,0,0,0,0,0,
0,0,0,0,0,0,0,0,0,0,0,0,0,0,0,0,
0,0,0,0,0,0,0,0,0,0,0,0,0,0,0,0,
401,402,403,401,402,403,401,402,403,401,402,403,401,401,563,564,
789,789,789,789,789,789,789,789,789,789,789,789,789,789,605,606,
831,831,831,831,831,831,117,831,831,831,831,831,831,831,647,648,
873,873,873,873,873,873,159,873,873,873,873,873,873,873,689,690,
930,930,930,930,930,930,930,930,930,930,930,930,930,930,731,732,
972,972,972,972,972,972,972,972,972,972,972,972,972,972,972,774,
930,930,930,930,930,930,930,930,930,930,930,930,930,930,930,816
</chunk>
   <chunk x="-16" y="-16" width="16" height="16">
0,0,0,0,0,0,0,0,0,0,775,972,972,972,972,972,
0,0,0,0,0,0,0,0,0,0,817,930,930,930,930,930,
0,0,0,0,0,0,0,0,0,0,859,972,972,972,972,972,
0,0,0,0,0,0,0,0,0,0,901,930,930,930,930,930,
0,0,0,0,0,0,0,0,0,0,943,944,972,972,972,972,
0,0,0,0,0,0,0,0,0,0,985,986,991,992,993,994,
0,0,0,0,0,0,0,0,0,0,0,0,0,0,0,0,
0,0,0,0,0,0,0,0,0,0,0,0,0,0,0,0,
0,0,0,0,0,0,0,0,0,0,0,0,0,0,0,0,
0,0,0,0,0,0,0,0,0,0,0,0,0,0,0,0,
0,0,0,0,0,0,0,0,0,0,0,0,0,0,0,0,
0,0,0,0,0,0,0,0,0,0,0,0,0,0,0,0,
0,0,0,0,0,0,0,0,0,0,0,0,0,0,0,0,
0,0,0,0,0,0,0,0,0,0,0,0,0,0,0,0,
0,0,0,0,0,0,0,0,0,0,0,0,0,0,0,0,
0,0,0,0,0,0,0,0,0,0,0,0,0,0,0,0
</chunk>
   <chunk x="0" y="-16" width="16" height="16">
972,972,972,972,972,972,972,972,972,972,972,972,972,972,972,972,
930,930,930,930,930,930,930,930,930,930,930,930,930,930,930,930,
972,972,972,972,972,972,972,972,972,972,972,972,972,972,972,972,
930,930,930,930,930,930,930,930,930,930,930,930,930,930,930,930,
972,972,972,972,972,972,972,972,972,972,972,972,972,972,972,972,
307,930,930,930,930,304,305,306,989,990,991,992,993,994,995,996,
1182,1183,1183,1183,1183,1184,0,0,0,0,0,0,0,0,0,0,
0,0,0,0,0,0,0,0,0,0,0,0,0,0,0,0,
0,0,0,0,0,0,0,0,0,0,0,0,0,0,0,0,
0,0,0,0,0,0,0,0,0,0,0,0,0,0,0,0,
0,0,0,0,0,0,0,0,0,0,0,0,0,0,0,0,
0,0,0,0,0,0,0,0,0,0,0,0,0,0,0,0,
0,0,0,0,0,0,0,0,0,0,0,0,0,0,0,0,
0,0,0,0,0,0,0,0,0,0,0,0,0,0,0,0,
0,0,0,0,0,0,0,0,0,0,0,0,0,0,0,0,
0,0,0,0,0,0,0,0,0,0,0,0,0,0,0,0
</chunk>
   <chunk x="16" y="-16" width="16" height="16">
972,972,972,972,972,972,972,972,972,972,972,972,972,972,972,858,
930,930,930,930,930,930,930,930,930,930,930,930,930,930,930,900,
972,972,972,972,972,972,972,972,972,972,972,972,972,972,972,942,
930,930,930,930,930,930,930,930,930,930,930,930,930,930,930,984,
972,972,972,972,972,972,972,972,972,972,972,972,972,972,955,956,
989,990,991,992,993,994,995,989,990,991,992,993,994,995,997,998,
0,0,0,0,0,0,0,0,0,0,0,0,0,0,0,0,
0,0,0,0,0,0,0,0,0,0,0,0,0,0,0,0,
0,0,0,0,0,0,0,0,0,0,0,0,0,0,0,0,
0,0,0,0,0,0,0,0,0,0,0,0,0,0,0,0,
0,0,0,0,0,0,0,0,0,0,0,0,0,0,0,0,
0,0,0,0,0,0,0,0,0,0,0,0,0,0,0,0,
0,0,0,0,0,0,0,0,0,0,0,0,0,0,0,0,
0,0,0,0,0,0,0,0,0,0,0,0,0,0,0,0,
0,0,0,0,0,0,0,0,0,0,0,0,0,0,0,0,
0,0,0,0,0,0,0,0,0,0,0,0,0,0,0,0
</chunk>
  </data>
 </layer>
</map>
